fs/globe_clock_24_filled.svg

<svg viewBox="0 0 24 24" fill="none" xmlns="http://www.w3.org/2000/svg" height="1em" width="1em">
  <path d="M11 17.5C11 17.1593 11.0262 16.8247 11.0767 16.4981L8.90581 16.4989L8.96386 16.7934C9.60097 19.9032 10.8046 21.9971 12.0016 21.9971C12.2125 21.9971 12.4237 21.932 12.6314 21.8067C11.6162 20.6599 11 19.1519 11 17.5ZM9.16518 21.5923C8.35605 20.3526 7.73777 18.5811 7.37299 16.4988L3.06735 16.499C4.29868 18.9386 6.49983 20.8051 9.16518 21.5923ZM7 11.9985C7 11.3171 7.02384 10.6488 7.07009 9.99886L2.20006 9.99825C2.06887 10.6446 2 11.3135 2 11.9985C2 13.0439 2.16037 14.0517 2.45784 14.9989H7.16047L7.10335 14.4187C7.03531 13.6377 7 12.8279 7 11.9985ZM15.4942 11.3146C15.4825 10.8668 15.4595 10.4274 15.4261 9.99829H8.57704L8.54381 10.4868C8.51507 10.9794 8.5 11.4842 8.5 11.9985C8.5 13.0456 8.56246 14.0532 8.67551 14.999L11.4988 14.9984C12.225 13.2585 13.6857 11.9017 15.4942 11.3146ZM22.0031 11.9985C22.0031 11.3135 21.9342 10.6446 21.803 9.99825L16.933 9.99886L16.9717 10.6547C16.9774 10.7757 16.9824 10.8973 16.9846 11.0201C17.1547 11.0068 17.3265 11 17.5 11C19.2329 11 20.8074 11.6781 21.9728 12.7832C21.9929 12.5243 22.0031 12.2626 22.0031 11.9985ZM21.3735 8.49821C20.2803 5.57247 17.8562 3.29586 14.8379 2.40488L14.9458 2.57511L15.1081 2.85087C15.905 4.26669 16.4868 6.23263 16.7826 8.4985L21.3735 8.49821ZM7.28208 8.05866C7.62974 5.73404 8.28435 3.75443 9.1651 2.40492L9.04333 2.4417L8.73908 2.54118C5.91953 3.51365 3.6709 5.71147 2.62963 8.49821L7.22051 8.4985L7.28208 8.05866ZM15.2155 8.18344C14.6471 4.54175 13.3203 2 12.0016 2C10.6451 2 9.28014 4.68907 8.74073 8.49825H15.2624L15.2155 8.18344ZM23 17.5C23 14.4624 20.5376 12 17.5 12C14.4624 12 12 14.4624 12 17.5C12 20.5376 14.4624 23 17.5 23C20.5376 23 23 20.5376 23 17.5ZM17.5 17.5H19.5C19.7761 17.5 20 17.7239 20 18C20 18.2762 19.7761 18.5 19.5 18.5H17C16.7268 18.5 16.5048 18.2809 16.5001 18.0089L16.5 17.9999V14.9999C16.5 14.7238 16.7239 14.4999 17 14.4999C17.2761 14.4999 17.5 14.7238 17.5 14.9999L17.5 17.5Z" fill="#212121"/>
</svg>

<svg viewBox="0 0 24 24" fill="none" xmlns="http://www.w3.org/2000/svg" height="1em" width="1em">
  <path d="M11 17.5c0-.34.026-.675.077-1.002H8.906l.058.295c.637 3.11 1.84 5.204 3.038 5.204.21 0 .422-.065.63-.19A6.475 6.475 0 0 1 11 17.5Zm-1.835 4.092c-.809-1.24-1.427-3.01-1.792-5.093H3.067a10.03 10.03 0 0 0 6.098 5.093ZM7 12c0-.682.024-1.35.07-2H2.2a10.048 10.048 0 0 0 .258 5H7.16l-.057-.58A27.934 27.934 0 0 1 7 11.999Zm8.494-.684a25.584 25.584 0 0 0-.068-1.317H8.577l-.033.489A25.973 25.973 0 0 0 8.676 15h2.823a6.523 6.523 0 0 1 3.995-3.684Zm6.51.684c0-.686-.07-1.354-.201-2h-4.87l.039.656c.005.12.01.242.013.365a6.48 6.48 0 0 1 4.988 1.763c.02-.259.03-.52.03-.784Zm-.63-3.5a10.027 10.027 0 0 0-6.536-6.094l.108.17.162.276c.797 1.416 1.379 3.382 1.675 5.647h4.59ZM7.282 8.06c.348-2.325 1.002-4.305 1.883-5.654l-.122.037-.304.1a10.03 10.03 0 0 0-6.11 5.956h4.592l.061-.44Zm7.934.124C14.646 4.542 13.32 2 12.002 2 10.645 2 9.28 4.69 8.74 8.498h6.521l-.046-.315ZM23 17.5a5.5 5.5 0 1 0-11 0 5.5 5.5 0 0 0 11 0Zm-5.5 0h2a.5.5 0 0 1 0 1H17a.5.5 0 0 1-.5-.491v-3.01a.5.5 0 0 1 1 0V17.5Z" fill="#212121"/>
</svg>
